svg/xamarin.svg

<svg viewBox="0 0 20 20" xmlns="http://www.w3.org/2000/svg">
<rect width="100%" height="100%" fill="#3598DA"/>
<path d="M9.95847 17.6041C8.84482 17.6041 7.73117 17.5913 6.61964 17.6041C6.32641 17.6239 6.03375 17.5581 5.7772 17.4147C5.52065 17.2713 5.31125 17.0566 5.17443 16.7965C4.02678 14.8072 2.89187 12.8009 1.73783 10.8074C1.579 10.56 1.49635 10.2714 1.50012 9.97744C1.5039 9.68348 1.59395 9.39711 1.75908 9.15389C2.90462 7.18587 4.02678 5.20722 5.15956 3.22857C5.30076 2.95561 5.51853 2.72979 5.78619 2.57878C6.05385 2.42778 6.35975 2.35815 6.66639 2.37845C8.89229 2.39687 11.1182 2.39687 13.3441 2.37845C13.6507 2.35815 13.9566 2.42778 14.2243 2.57878C14.4919 2.72979 14.7097 2.95561 14.8509 3.22857C15.9794 5.20509 17.1016 7.18587 18.2514 9.15177C18.4172 9.40872 18.5037 9.70885 18.4999 10.0147C18.4961 10.3205 18.4023 10.6184 18.2301 10.8711C17.0966 12.8108 15.978 14.7611 14.8743 16.7221C14.7302 17.0086 14.5035 17.2453 14.2236 17.4018C13.9436 17.5582 13.6232 17.6272 13.3037 17.5998C12.1837 17.5849 11.07 17.6041 9.95847 17.6041V17.6041ZM7.84806 13.8763C8.5239 12.6861 9.2295 11.4471 10.001 10.0869L12.1433 13.8593H13.733L11.6098 10.004L13.7351 6.11259H12.1582L9.99035 9.919L7.85231 6.12747H6.26046L8.39213 10.004L6.26684 13.8763H7.84806Z" fill="white"/>
</svg>

<svg xmlns="http://www.w3.org/2000/svg" viewBox="0 0 20 20">
  <rect width="100%" height="100%" fill="#3598DA"/>
  <path fill="#fff" d="M9.96 17.6H6.62a1.52 1.52 0 0 1-1.45-.8l-3.43-6a1.5 1.5 0 0 1 .02-1.65C2.9 7.2 4.03 5.21 5.16 3.23a1.58 1.58 0 0 1 1.5-.85c2.23.02 4.46.02 6.68 0a1.58 1.58 0 0 1 1.51.85c1.13 1.98 2.25 3.96 3.4 5.92a1.56 1.56 0 0 1-.02 1.72 416.1 416.1 0 0 0-3.36 5.85 1.6 1.6 0 0 1-1.57.88c-1.12-.02-2.23 0-3.34 0Zm-2.11-3.72 2.15-3.8 2.14 3.78h1.6L11.6 10l2.13-3.89h-1.58l-2.17 3.8-2.14-3.78H6.26L8.39 10l-2.12 3.88h1.58Z"/>
</svg>
